packages/core/src/svgs/tokens/mono/NOM.svg

<svg width="24" height="24" viewBox="0 0 24 24" fill="none" xmlns="http://www.w3.org/2000/svg">
<path d="M2 6.89414C2 4.91767 3.38822 4.05884 4.60588 4.05884C6.38823 4.05884 8.47646 5.24708 9.7647 6.37648C10.3906 6.92772 11.171 7.27278 12 7.36472C12.8289 7.27278 13.6095 6.92772 14.2352 6.37648C15.5294 5.24708 17.6117 4.05884 19.3941 4.05884C20.6118 4.05884 22 4.91767 22 6.89414C22 8.86472 20.1353 11.8294 17.5764 13.3294C17.9647 13.7177 19.647 15.7354 19.647 17.4059C19.647 19.0823 18.4411 19.9411 17.447 19.9411C15.7942 19.9411 15 19.0882 14.2706 18.2941C13.6412 17.6177 13.0529 17.0059 12 17C10.947 17.0059 10.3589 17.6177 9.72942 18.2941C8.99999 19.0882 8.20586 19.9411 6.55293 19.9411C5.55294 19.9411 4.35293 19.0823 4.35293 17.4118C4.35293 15.7354 6.03529 13.7177 6.42352 13.3294C3.8647 11.8294 2 8.86472 2 6.89414ZM4.95293 8.13531C5.18235 8.66472 6.15882 10.0883 8.20586 11.5295C8.63528 11.1823 9.54701 10.2824 9.54701 9.51182C9.54701 8.7353 7.81175 7.14707 6.20587 7.14707C5.29999 7.14707 4.95293 7.70589 4.95293 8.13531ZM15.8353 11.5295C17.8883 10.0883 18.8647 8.66472 19.094 8.13531C19.094 7.70589 18.7412 7.14707 17.8353 7.14707C16.2294 7.14707 14.4941 8.7353 14.4941 9.51182C14.4941 10.2824 15.4059 11.1823 15.8411 11.5295H15.8353ZM12 10.5294C11.4764 11.0117 10.3589 12.0823 10.1588 12.2941C11.0705 12.5353 11.7471 12.5705 11.9823 12.553C12.2176 12.5705 12.9235 12.5353 13.8882 12.2941C13.6765 12.0823 12.547 11.0117 12 10.5294ZM9.27058 15.9706C8.9071 15.3365 8.42829 14.7758 7.85882 14.3177C6.94705 15.1353 6.64116 15.947 6.64116 16.4647C6.64116 16.9764 7.03529 17.3647 7.42351 17.3647C8.25882 17.3647 8.91763 16.4588 9.18234 16.0941C9.21764 16.0353 9.24116 16 9.27058 15.9765V15.9706ZM16.1882 14.3177C15.6187 14.7758 15.1399 15.3365 14.7764 15.9706L14.8647 16.0882C15.1294 16.4588 15.7824 17.3647 16.6177 17.3647C17.0117 17.3647 17.4 16.9764 17.4 16.4647C17.4 15.947 17.1 15.1353 16.1882 14.3177Z" fill="white"/>
<path d="M8.12852 19.6119C7.70499 19.812 7.18735 19.9413 6.55205 19.9413C5.55206 19.9413 4.35205 19.0825 4.35205 17.4119C4.35205 15.7355 6.02852 13.7236 6.42264 13.3355C6.91088 13.6237 7.405 13.9531 7.85205 14.3237C6.94029 15.1354 6.705 15.9531 6.705 16.4649C6.705 16.9766 7.03441 17.3649 7.42263 17.3649C8.25794 17.3649 8.9344 16.4355 9.19911 16.0707L9.2697 15.9708C9.44621 16.3236 9.54613 16.6883 9.54613 17.0648C9.54613 18.1178 8.86381 18.9942 8.13441 19.6119H8.12852ZM17.5873 13.353C18.0168 13.7766 19.6462 15.7649 19.6462 17.4119C19.6462 19.0825 18.4402 19.9413 17.4461 19.9413C16.8521 19.9413 16.3698 19.8295 15.9638 19.653C15.2109 19.0413 14.3521 18.1413 14.3521 17.0648C14.3521 16.6883 14.5933 16.3236 14.7755 15.9708C14.9755 16.2413 15.6932 17.3649 16.6168 17.3649C17.0109 17.3649 17.3992 16.9766 17.3992 16.4649C17.3992 15.9531 17.0991 15.1354 16.1932 14.3237C16.6285 13.959 17.1167 13.6355 17.5932 13.3473L17.5873 13.353ZM7.57558 4.90016C8.39911 5.32369 9.16382 5.8531 9.76382 6.37663C10.3897 6.92787 11.1701 7.27293 11.9991 7.36486C12.828 7.27293 13.6086 6.92787 14.2343 6.37663C14.8403 5.84722 15.6227 5.30017 16.4697 4.87664C16.9756 4.74133 17.5462 4.64722 18.0933 4.64722C19.0932 4.64722 19.6462 5.25899 19.6462 6.24722C19.6462 7.27663 19.2638 8.12958 18.5285 9.01785C18.8226 8.63546 19.0108 8.32957 19.0932 8.13545C19.0932 7.70604 18.7403 7.14722 17.8344 7.14722C16.2285 7.14722 14.4932 8.73545 14.4932 9.51197C14.4932 10.2766 15.3815 11.159 15.8227 11.5119C15.2253 11.8822 14.5687 12.147 13.8815 12.2943C13.6462 12.059 12.5403 11.0002 11.9991 10.5296C11.4755 11.0119 10.358 12.0825 10.1579 12.2943L10.4344 12.3648C9.64152 12.2436 8.88348 11.9548 8.21087 11.5178C8.65205 11.1707 9.54613 10.2825 9.54613 9.51197C9.54613 8.73545 7.81087 7.14722 6.20499 7.14722C5.29911 7.14722 4.95205 7.70604 4.95205 8.13545C4.97559 8.20015 5.01087 8.27663 5.0697 8.36486C4.63974 7.73869 4.39137 7.00578 4.35205 6.24722C4.35205 5.25899 4.86382 4.64722 5.85793 4.64722C6.44616 4.64722 7.04617 4.75311 7.57558 4.90016Z" fill="white"/>
</svg>

<svg xmlns="http://www.w3.org/2000/svg" width="24" height="24" fill="none" viewBox="0 0 24 24">
    <path fill="#fff" d="M2 6.894C2 4.918 3.388 4.06 4.606 4.06c1.782 0 3.87 1.188 5.159 2.317A4.06 4.06 0 0 0 12 7.365a4.06 4.06 0 0 0 2.235-.989c1.294-1.129 3.377-2.317 5.16-2.317 1.217 0 2.605.859 2.605 2.835 0 1.97-1.865 4.935-4.424 6.435.389.389 2.071 2.406 2.071 4.077 0 1.676-1.206 2.535-2.2 2.535-1.653 0-2.447-.853-3.176-1.647-.63-.676-1.218-1.288-2.271-1.294-1.053.006-1.641.618-2.27 1.294-.73.794-1.524 1.647-3.177 1.647-1 0-2.2-.859-2.2-2.53 0-1.676 1.682-3.693 2.07-4.082C3.866 11.83 2 8.865 2 6.894m2.953 1.241c.23.53 1.206 1.953 3.253 3.395.43-.348 1.341-1.248 1.341-2.018 0-.777-1.735-2.365-3.341-2.365-.906 0-1.253.559-1.253.988m10.882 3.395c2.053-1.442 3.03-2.865 3.259-3.395 0-.43-.353-.988-1.259-.988-1.606 0-3.34 1.588-3.34 2.365 0 .77.91 1.67 1.346 2.018zm-3.835-1a75 75 0 0 0-1.841 1.764c.911.241 1.588.276 1.823.259.236.017.942-.018 1.906-.259A70 70 0 0 0 12 10.53m-2.73 5.44a5.9 5.9 0 0 0-1.411-1.652c-.912.817-1.218 1.629-1.218 2.147 0 .511.394.9.783.9.835 0 1.494-.906 1.758-1.27a.4.4 0 0 1 .089-.118zm6.918-1.652a5.9 5.9 0 0 0-1.412 1.653l.089.117c.264.37.917 1.277 1.753 1.277.394 0 .782-.389.782-.9 0-.518-.3-1.33-1.212-2.147"/>
    <path fill="#fff" d="M8.129 19.612c-.424.2-.942.33-1.577.33-1 0-2.2-.86-2.2-2.53 0-1.676 1.677-3.688 2.07-4.076.489.288.983.617 1.43.988-.912.811-1.147 1.63-1.147 2.14 0 .513.33.9.718.9.835 0 1.511-.928 1.776-1.293l.07-.1c.177.353.277.717.277 1.094 0 1.053-.682 1.93-1.412 2.547zm9.458-6.259c.43.424 2.06 2.412 2.06 4.059 0 1.67-1.207 2.53-2.2 2.53a3.65 3.65 0 0 1-1.483-.289c-.753-.612-1.612-1.512-1.612-2.588 0-.377.241-.741.423-1.094.2.27.918 1.394 1.842 1.394.394 0 .782-.388.782-.9s-.3-1.33-1.206-2.141a11 11 0 0 1 1.4-.977zM7.576 4.9a11.2 11.2 0 0 1 2.188 1.477 4.06 4.06 0 0 0 2.235.988 4.06 4.06 0 0 0 2.235-.988 11 11 0 0 1 2.236-1.5 6.4 6.4 0 0 1 1.623-.23c1 0 1.553.612 1.553 1.6 0 1.03-.382 1.883-1.117 2.77.294-.382.482-.687.564-.882 0-.429-.353-.988-1.259-.988-1.605 0-3.34 1.588-3.34 2.365 0 .765.888 1.647 1.329 2a6.1 6.1 0 0 1-1.941.782 58 58 0 0 0-1.883-1.764 75 75 0 0 0-1.841 1.764l.276.07a5.65 5.65 0 0 1-2.223-.846c.441-.347 1.335-1.235 1.335-2.006 0-.777-1.735-2.365-3.341-2.365-.906 0-1.253.559-1.253.988.024.065.059.142.118.23a4.1 4.1 0 0 1-.718-2.118c0-.988.512-1.6 1.506-1.6a6.6 6.6 0 0 1 1.718.253"/>
</svg>
